ivy-dev/48/pool/login-manager.svg

<?xml version="1.0" encoding="UTF-8" standalone="no"?>
<!-- Created with Inkscape (http://www.inkscape.org/) -->

<svg
   xmlns:dc="http://purl.org/dc/elements/1.1/"
   xmlns:cc="http://creativecommons.org/ns#"
   xmlns:rdf="http://www.w3.org/1999/02/22-rdf-syntax-ns#"
   xmlns:svg="http://www.w3.org/2000/svg"
   xmlns="http://www.w3.org/2000/svg"
   xmlns:xlink="http://www.w3.org/1999/xlink"
   xmlns:inkscape="http://www.inkscape.org/namespaces/inkscape"
   version="1.1"
   width="48"
   height="48"
   id="svg2">
  <metadata
     id="metadata35">
    <rdf:RDF>
      <cc:Work
         rdf:about="">
        <dc:format>image/svg+xml</dc:format>
        <dc:type
           rdf:resource="http://purl.org/dc/dcmitype/StillImage" />
        <dc:title />
      </cc:Work>
    </rdf:RDF>
  </metadata>
  <defs
     id="defs6">
    <linearGradient
       id="linearGradient3796">
      <stop
         id="stop3798"
         style="stop-color:#ffffff;stop-opacity:1"
         offset="0" />
      <stop
         id="stop3800"
         style="stop-color:#ffffff;stop-opacity:0"
         offset="1" />
    </linearGradient>
    <linearGradient
       id="linearGradient3633">
      <stop
         id="stop3635"
         style="stop-color:#d3d7cf;stop-opacity:1"
         offset="0" />
      <stop
         id="stop3637"
         style="stop-color:#eeeeec;stop-opacity:1"
         offset="1" />
    </linearGradient>
    <linearGradient
       id="linearGradient3597">
      <stop
         id="stop3599"
         style="stop-color:#eeeeec;stop-opacity:1"
         offset="0" />
      <stop
         id="stop3601"
         style="stop-color:#555753;stop-opacity:1"
         offset="1" />
    </linearGradient>
    <linearGradient
       x1="105.26971"
       y1="42.294605"
       x2="105.26971"
       y2="12.294606"
       id="linearGradient2848"
       xlink:href="#linearGradient3633"
       gradientUnits="userSpaceOnUse"
       gradientTransform="translate(-61.269707,-6.2388696)" />
    <linearGradient
       x1="95.40625"
       y1="47.875"
       x2="95.40625"
       y2="36.34375"
       id="linearGradient3893"
       xlink:href="#linearGradient3597"
       gradientUnits="userSpaceOnUse"
       gradientTransform="matrix(0.9687292,0,0,1.0014291,-58.564742,-5.9452208)" />
    <linearGradient
       x1="43"
       y1="7"
       x2="43"
       y2="46"
       id="linearGradient3802"
       xlink:href="#linearGradient3796"
       gradientUnits="userSpaceOnUse" />
  </defs>
  <path
     d="m 6,7.0625 c -1.108,0 -2,0.891999 -2,2 v 26 c 0,1.108 0.891999,2 2,2 h 11.75 v 2.15625 h -2.875 c -1.00627,0 -1.8125,0.866015 -1.8125,1.90625 0,1.04023 0.806232,1.875 1.8125,1.875 h 18.3438 c 1.00627,0 1.8125,-0.834767 1.8125,-1.875 0,-1.04024 -0.806233,-1.90625 -1.8125,-1.90625 h -2.875 V 37.0625 H 42 c 1.108,0 2,-0.891999 2,-2 v -26 c 0,-1.108 -0.891999,-2 -2,-2 H 6 z"
     inkscape:connector-curvature="0"
     id="path3014"
     style="opacity:0.1;stroke:none" />
  <path
     d="m 17.7418,30.4415 0,7.7924 -2.8759,0 c -1.00627,0 -1.81637,0.837445 -1.81637,1.87768 0,1.04023 0.810099,1.87768 1.81637,1.87768 h 18.3453 c 1.00627,0 1.81637,-0.837446 1.81637,-1.87768 0,-1.04024 -0.810101,-1.87768 -1.81637,-1.87768 h -2.87591 v -7.79237 h -12.5935 z"
     inkscape:connector-curvature="0"
     id="rect2820"
     style="fill:url(#linearGradient3893);stroke:none" />
  <path
     d="m 19.2857,32.0375 0,6.1963 a 1.54068,1.59268 0 0 1 -1.54391,1.59603 h -2.87591 c -0.179465,0 -0.272456,0.09613 -0.272456,0.281652 0,0.185522 0.09299,0.281651 0.272456,0.281651 h 18.3453 c 0.179464,0 0.272455,-0.09613 0.272455,-0.281651 0,-0.185524 -0.09299,-0.281652 -0.272455,-0.281652 H 30.33527 A 1.54068,1.59268 0 0 1 28.79136,38.2338 V 32.03746 H 19.2857 z"
     inkscape:connector-curvature="0"
     id="path3900"
     style="opacity:0.4;fill:none;stroke:#ffffff;stroke-width:0.98500001" />
  <path
     d="m 18.2261,30.9422 0,7.2917 a 0.487506,0.503962 0 0 1 -0.484364,0.500714 h -2.87591 c -0.744648,0 -1.332,0.607181 -1.332,1.37697 0,0.769783 0.587355,1.37696 1.332,1.37696 h 18.3453 c 0.744648,0 1.332,-0.607181 1.332,-1.37696 0,-0.769785 -0.587355,-1.37697 -1.332,-1.37697 h -2.87591 A 0.487506,0.503962 0 0 1 29.850852,38.2339 v -7.29166 h -11.6248 z"
     inkscape:connector-curvature="0"
     id="path3898"
     style="opacity:0.4;fill:none;stroke:#000000;stroke-width:0.98500001" />
  <rect
     width="40"
     height="30.000013"
     rx="2.000001"
     ry="2.000001"
     x="3.9999998"
     y="6.0557423"
     id="rect2818"
     style="fill:url(#linearGradient2848);stroke:none" />
  <path
     d="m 6.0115,6.5736 c -0.826489,0 -1.46875,0.642261 -1.46875,1.46875 v 26 c 0,0.826489 0.642261,1.46875 1.46875,1.46875 h 36 c 0.82649,0 1.46875,-0.642261 1.46875,-1.46875 v -26 c 0,-0.826489 -0.64226,-1.46875 -1.46875,-1.46875 h -36 z"
     inkscape:connector-curvature="0"
     id="path3617"
     style="opacity:0.4;fill:none;stroke:#000000" />
  <rect
     width="34"
     height="18.816294"
     x="7.0115428"
     y="10.1014"
     id="rect3627"
     style="fill:#a868d4;stroke:none" />
  <path
     d="m 7.4688,10.5378 0,17.9343 33.0625,0 0,-17.9343 -33.0625,0 z"
     inkscape:connector-curvature="0"
     id="path2857"
     style="opacity:0.46000001;fill:none;stroke:#000000;stroke-width:0.97000003" />
  <rect
     width="26"
     height="1"
     x="11"
     y="24"
     id="rect34"
     style="opacity:0.2;fill:#ffffff;fill-opacity:1;stroke:none" />
  <path
     d="m 6.0115,7.4799 c -0.330232,0 -0.5625,0.232268 -0.5625,0.5625 v 26 c 0,0.330231 0.232268,0.5625 0.5625,0.5625 h 36 c 0.33023,0 0.5625,-0.232269 0.5625,-0.5625 v -26 c 0,-0.330232 -0.23227,-0.5625 -0.5625,-0.5625 h -36 z"
     inkscape:connector-curvature="0"
     id="path3619"
     style="opacity:0.9;fill:none;stroke:url(#linearGradient3802)" />
  <rect
     width="34"
     height="1"
     x="7"
     y="29"
     id="rect3015"
     style="opacity:0.79599998;color:#000000;fill:#ffffff;fill-rule:evenodd;stroke:none" />
  <rect
     width="26"
     height="9"
     x="11"
     y="15"
     id="rect30"
     style="fill:#6a6a6a;fill-opacity:1;stroke:none" />
  <rect
     width="24"
     height="7"
     x="12"
     y="16"
     id="rect32"
     style="fill:#ffffff;fill-opacity:1;stroke:none" />
  <path
     d="m 15,17 0,1 -1,0 0,1 -1,0 0,1 1,0 0,1 1,0 0,1 1,0 0,-1 1,0 0,-1 1,0 0,-1 -1,0 0,-1 -1,0 0,-1 -1,0 z"
     inkscape:connector-curvature="0"
     id="rect36"
     style="fill:#6a6a6a;fill-opacity:1;stroke:none" />
  <path
     d="m 21,17 0,1 -1,0 0,1 -1,0 0,1 1,0 0,1 1,0 0,1 1,0 0,-1 1,0 0,-1 1,0 0,-1 -1,0 0,-1 -1,0 0,-1 -1,0 z"
     inkscape:connector-curvature="0"
     id="path49"
     style="fill:#6a6a6a;fill-opacity:1;stroke:none" />
  <path
     d="m 27,17 0,1 -1,0 0,1 -1,0 0,1 1,0 0,1 1,0 0,1 1,0 0,-1 1,0 0,-1 1,0 0,-1 -1,0 0,-1 -1,0 0,-1 -1,0 z"
     inkscape:connector-curvature="0"
     id="path51"
     style="fill:#6a6a6a;fill-opacity:1;stroke:none" />
</svg>

<?xml version="1.0" encoding="UTF-8" standalone="no"?>
<!-- Created with Inkscape (http://www.inkscape.org/) -->

<svg
   xmlns:dc="http://purl.org/dc/elements/1.1/"
   xmlns:cc="http://creativecommons.org/ns#"
   xmlns:rdf="http://www.w3.org/1999/02/22-rdf-syntax-ns#"
   xmlns:svg="http://www.w3.org/2000/svg"
   xmlns="http://www.w3.org/2000/svg"
   xmlns:xlink="http://www.w3.org/1999/xlink"
   xmlns:sodipodi="http://sodipodi.sourceforge.net/DTD/sodipodi-0.dtd"
   xmlns:inkscape="http://www.inkscape.org/namespaces/inkscape"
   version="1.1"
   width="48"
   height="48"
   id="svg2"
   inkscape:version="0.49+devel r"
   sodipodi:docname="login-manager.svg">
  <sodipodi:namedview
     pagecolor="#ffffff"
     bordercolor="#666666"
     borderopacity="1"
     objecttolerance="10"
     gridtolerance="10"
     guidetolerance="10"
     inkscape:pageopacity="0"
     inkscape:pageshadow="2"
     inkscape:window-width="1366"
     inkscape:window-height="715"
     id="namedview29"
     showgrid="true"
     inkscape:snap-bbox="true"
     inkscape:bbox-nodes="true"
     inkscape:zoom="17.138526"
     inkscape:cx="14.226697"
     inkscape:cy="24"
     inkscape:window-x="-2"
     inkscape:window-y="0"
     inkscape:window-maximized="1"
     inkscape:current-layer="svg2">
    <inkscape:grid
       type="xygrid"
       id="grid28" />
  </sodipodi:namedview>
  <metadata
     id="metadata35">
    <rdf:RDF>
      <cc:Work
         rdf:about="">
        <dc:format>image/svg+xml</dc:format>
        <dc:type
           rdf:resource="http://purl.org/dc/dcmitype/StillImage" />
        <dc:title></dc:title>
      </cc:Work>
    </rdf:RDF>
  </metadata>
  <defs
     id="defs6">
    <linearGradient
       id="linearGradient3796">
      <stop
         id="stop3798"
         style="stop-color:#ffffff;stop-opacity:1"
         offset="0" />
      <stop
         id="stop3800"
         style="stop-color:#ffffff;stop-opacity:0"
         offset="1" />
    </linearGradient>
    <linearGradient
       id="linearGradient3633">
      <stop
         id="stop3635"
         style="stop-color:#d3d7cf;stop-opacity:1"
         offset="0" />
      <stop
         id="stop3637"
         style="stop-color:#eeeeec;stop-opacity:1"
         offset="1" />
    </linearGradient>
    <linearGradient
       id="linearGradient3597">
      <stop
         id="stop3599"
         style="stop-color:#eeeeec;stop-opacity:1"
         offset="0" />
      <stop
         id="stop3601"
         style="stop-color:#555753;stop-opacity:1"
         offset="1" />
    </linearGradient>
    <linearGradient
       x1="105.26971"
       y1="42.294605"
       x2="105.26971"
       y2="12.294606"
       id="linearGradient2848"
       xlink:href="#linearGradient3633"
       gradientUnits="userSpaceOnUse"
       gradientTransform="translate(-61.269707,-6.2388696)" />
    <linearGradient
       x1="95.40625"
       y1="47.875"
       x2="95.40625"
       y2="36.34375"
       id="linearGradient3893"
       xlink:href="#linearGradient3597"
       gradientUnits="userSpaceOnUse"
       gradientTransform="matrix(0.9687292,0,0,1.0014291,-58.564742,-5.9452208)" />
    <linearGradient
       x1="43"
       y1="7"
       x2="43"
       y2="46"
       id="linearGradient3802"
       xlink:href="#linearGradient3796"
       gradientUnits="userSpaceOnUse" />
  </defs>
  <path
     d="m 6,7.0625 c -1.108,0 -2,0.891999 -2,2 v 26 c 0,1.108 0.891999,2 2,2 h 11.75 v 2.15625 h -2.875 c -1.00627,0 -1.8125,0.866015 -1.8125,1.90625 0,1.04023 0.806232,1.875 1.8125,1.875 h 18.3438 c 1.00627,0 1.8125,-0.834767 1.8125,-1.875 0,-1.04024 -0.806233,-1.90625 -1.8125,-1.90625 h -2.875 V 37.0625 H 42 c 1.108,0 2,-0.891999 2,-2 v -26 c 0,-1.108 -0.891999,-2 -2,-2 H 6 z"
     inkscape:connector-curvature="0"
     id="path3014"
     style="opacity:0.1;stroke:none" />
  <path
     d="m 17.7418,30.4415 0,7.7924 -2.8759,0 c -1.00627,0 -1.81637,0.837445 -1.81637,1.87768 0,1.04023 0.810099,1.87768 1.81637,1.87768 h 18.3453 c 1.00627,0 1.81637,-0.837446 1.81637,-1.87768 0,-1.04024 -0.810101,-1.87768 -1.81637,-1.87768 h -2.87591 v -7.79237 h -12.5935 z"
     inkscape:connector-curvature="0"
     id="rect2820"
     style="fill:url(#linearGradient3893);stroke:none" />
  <path
     d="m 19.2857,32.0375 0,6.1963 a 1.54068,1.59268 0 0 1 -1.54391,1.59603 h -2.87591 c -0.179465,0 -0.272456,0.09613 -0.272456,0.281652 0,0.185522 0.09299,0.281651 0.272456,0.281651 h 18.3453 c 0.179464,0 0.272455,-0.09613 0.272455,-0.281651 0,-0.185524 -0.09299,-0.281652 -0.272455,-0.281652 H 30.33527 A 1.54068,1.59268 0 0 1 28.79136,38.2338 V 32.03746 H 19.2857 z"
     inkscape:connector-curvature="0"
     id="path3900"
     style="opacity:0.4;fill:none;stroke:#ffffff;stroke-width:0.98500001" />
  <path
     d="m 18.2261,30.9422 0,7.2917 a 0.487506,0.503962 0 0 1 -0.484364,0.500714 h -2.87591 c -0.744648,0 -1.332,0.607181 -1.332,1.37697 0,0.769783 0.587355,1.37696 1.332,1.37696 h 18.3453 c 0.744648,0 1.332,-0.607181 1.332,-1.37696 0,-0.769785 -0.587355,-1.37697 -1.332,-1.37697 h -2.87591 A 0.487506,0.503962 0 0 1 29.850852,38.2339 v -7.29166 h -11.6248 z"
     inkscape:connector-curvature="0"
     id="path3898"
     style="opacity:0.4;fill:none;stroke:#000000;stroke-width:0.98500001" />
  <rect
     width="40"
     height="30.000013"
     rx="2.000001"
     ry="2.000001"
     x="3.9999998"
     y="6.0557423"
     id="rect2818"
     style="fill:url(#linearGradient2848);stroke:none" />
  <path
     d="m 6.0115,6.5736 c -0.826489,0 -1.46875,0.642261 -1.46875,1.46875 v 26 c 0,0.826489 0.642261,1.46875 1.46875,1.46875 h 36 c 0.82649,0 1.46875,-0.642261 1.46875,-1.46875 v -26 c 0,-0.826489 -0.64226,-1.46875 -1.46875,-1.46875 h -36 z"
     inkscape:connector-curvature="0"
     id="path3617"
     style="opacity:0.4;fill:none;stroke:#000000" />
  <rect
     width="34"
     height="18.816294"
     x="7.0115428"
     y="10.1014"
     id="rect3627"
     style="fill:#a868d4;stroke:none" />
  <path
     d="m 7.4688,10.5378 0,17.9343 33.0625,0 0,-17.9343 -33.0625,0 z"
     inkscape:connector-curvature="0"
     id="path2857"
     style="opacity:0.46000001;fill:none;stroke:#000000;stroke-width:0.97000003" />
  <rect
     y="24"
     x="11"
     height="1"
     width="26"
     id="rect34"
     style="opacity:0.2;fill:#ffffff;fill-opacity:1;stroke:none" />
  <path
     d="m 6.0115,7.4799 c -0.330232,0 -0.5625,0.232268 -0.5625,0.5625 v 26 c 0,0.330231 0.232268,0.5625 0.5625,0.5625 h 36 c 0.33023,0 0.5625,-0.232269 0.5625,-0.5625 v -26 c 0,-0.330232 -0.23227,-0.5625 -0.5625,-0.5625 h -36 z"
     inkscape:connector-curvature="0"
     id="path3619"
     style="opacity:0.9;fill:none;stroke:url(#linearGradient3802)" />
  <rect
     width="34"
     height="1"
     x="7"
     y="29"
     id="rect3015"
     style="opacity:0.79599998;color:#000000;fill:#ffffff;fill-rule:evenodd;stroke:none" />
  <rect
     style="fill:#6a6a6a;fill-opacity:1;stroke:none"
     id="rect30"
     width="26"
     height="9"
     x="11"
     y="15" />
  <rect
     y="16"
     x="12"
     height="7"
     width="24"
     id="rect32"
     style="fill:#ffffff;fill-opacity:1;stroke:none" />
  <path
     style="fill:#6a6a6a;fill-opacity:1;stroke:none"
     d="M 15 17 L 15 18 L 14 18 L 14 19 L 13 19 L 13 20 L 14 20 L 14 21 L 15 21 L 15 22 L 16 22 L 16 21 L 17 21 L 17 20 L 18 20 L 18 19 L 17 19 L 17 18 L 16 18 L 16 17 L 15 17 z "
     id="rect36" />
  <path
     id="path49"
     d="m 21,17 0,1 -1,0 0,1 -1,0 0,1 1,0 0,1 1,0 0,1 1,0 0,-1 1,0 0,-1 1,0 0,-1 -1,0 0,-1 -1,0 0,-1 L 21,17 Z"
     style="fill:#6a6a6a;fill-opacity:1;stroke:none"
     inkscape:connector-curvature="0" />
  <path
     inkscape:connector-curvature="0"
     style="fill:#6a6a6a;fill-opacity:1;stroke:none"
     d="m 27,17 0,1 -1,0 0,1 -1,0 0,1 1,0 0,1 1,0 0,1 1,0 0,-1 1,0 0,-1 1,0 0,-1 -1,0 0,-1 -1,0 0,-1 L 27,17 Z"
     id="path51" />
</svg>
